X: 3235
T: PORTRUSH
%R: slip-jig
B: James Kerr "Merry Melodies" v.3 p.26 #235
Z: 2016 John Chambers <jc:trillian.mit.edu>
M: 9/8
L: 1/8
K: A
|:\
Ace agf ece | Ace agf e3 |\
Ace agf ecA | Bcd EFG A3 ::\
EFE E2F GFE | ABA A2c ecA |\
dfa agf ecA | Bcd EFG A3 :|

%%sep 1 1 500
%%sep 1 1 500

